components/Common/Svg/svgs/ipadDevelopment.svg

<svg
  width="40"
  height="40"
  viewBox="0 0 40 40"
  fill="none"
  xmlns="http://www.w3.org/2000/svg"
>
  <path
    d="M28.8906 6.66688V28.8891C28.8906 30.1164 27.8957 31.1113 26.6684 31.1113H8.89063C7.66333 31.1113 6.6684 30.1164 6.6684 28.8891V6.66688C6.6684 5.43958 7.66333 4.44466 8.89063 4.44466H26.6684C27.8957 4.44466 28.8906 5.43958 28.8906 6.66688Z"
    stroke="#161616"
    stroke-width="2"
    stroke-linecap="round"
    stroke-linejoin="round"
  ></path>
  <path
    d="M13.332 26.6667H22.2209"
    stroke="#161616"
    stroke-width="2"
    stroke-linecap="round"
    stroke-linejoin="round"
  ></path>
  <path
    d="M28.4433 21.6106L26.8053 20.3825C26.7174 20.3164 26.6151 20.2721 26.5067 20.2533C26.3984 20.2345 26.2871 20.2418 26.1821 20.2744C25.6748 20.4333 25.1826 20.6369 24.7114 20.8829C24.6138 20.9341 24.5299 21.0077 24.4664 21.0977C24.4029 21.1877 24.3617 21.2916 24.3463 21.4006L24.0567 23.4276C23.9463 23.5255 23.8383 23.6272 23.7325 23.7329C23.6268 23.8386 23.525 23.9467 23.4272 24.0572L23.4271 24.0572L21.4005 24.347C21.2916 24.3624 21.1879 24.4035 21.098 24.4668C21.0081 24.5301 20.9345 24.6139 20.8834 24.7112C20.637 25.1823 20.433 25.6743 20.2737 26.1815C20.2409 26.2866 20.2336 26.3981 20.2523 26.5066C20.2711 26.6152 20.3154 26.7177 20.3816 26.8057L21.6102 28.4438C21.6013 28.591 21.5968 28.7394 21.5968 28.8889C21.5968 29.0384 21.6013 29.1868 21.6102 29.3341L21.6102 29.3341L20.382 30.9721C20.3159 31.06 20.2716 31.1623 20.2529 31.2707C20.2341 31.379 20.2413 31.4903 20.2739 31.5953C20.4328 32.1026 20.6364 32.5948 20.8824 33.066C20.9336 33.1636 21.0072 33.2476 21.0972 33.311C21.1873 33.3745 21.2911 33.4157 21.4002 33.4312L23.4271 33.7207C23.525 33.8311 23.6267 33.9391 23.7324 34.0449C23.8381 34.1506 23.9462 34.2524 24.0567 34.3502L24.0567 34.3503L24.3465 36.3769C24.3619 36.4858 24.403 36.5895 24.4663 36.6794C24.5296 36.7693 24.6134 36.8429 24.7107 36.894C25.1818 37.1404 25.6738 37.3445 26.181 37.5037C26.2861 37.5365 26.3976 37.5438 26.5061 37.5251C26.6147 37.5063 26.7172 37.462 26.8052 37.3958L28.4433 36.1673C28.5905 36.1761 28.7389 36.1806 28.8884 36.1806C29.0379 36.1806 29.1863 36.1762 29.3336 36.1672L29.3336 36.1673L30.9716 37.3954C31.0595 37.4615 31.1618 37.5058 31.2702 37.5246C31.3785 37.5434 31.4898 37.5361 31.5948 37.5035C32.1021 37.3446 32.5943 37.141 33.0655 36.895C33.1631 36.8438 33.2471 36.7702 33.3106 36.6802C33.374 36.5902 33.4152 36.4863 33.4307 36.3773L33.7202 34.3503C33.8306 34.2524 33.9387 34.1507 34.0444 34.045C34.1501 33.9393 34.2519 33.8312 34.3497 33.7207L34.3498 33.7207L36.3764 33.4309C36.4853 33.4155 36.589 33.3744 36.6789 33.3111C36.7688 33.2478 36.8424 33.164 36.8936 33.0667C37.1399 32.5956 37.344 32.1036 37.5032 31.5964C37.536 31.4913 37.5434 31.3798 37.5246 31.2713C37.5058 31.1627 37.4615 31.0602 37.3953 30.9722L36.1668 29.3341C36.1756 29.1869 36.1801 29.0385 36.1801 28.889C36.1801 28.7395 36.1757 28.5911 36.1668 28.4438L36.1668 28.4438L37.3949 26.8058C37.461 26.7179 37.5053 26.6156 37.5241 26.5072C37.5429 26.3989 37.5357 26.2876 37.503 26.1826C37.3442 25.6753 37.1405 25.1831 36.8945 24.7119C36.8434 24.6143 36.7697 24.5303 36.6797 24.4669C36.5897 24.4034 36.4858 24.3622 36.3768 24.3468L34.3498 24.0572C34.252 23.9468 34.1502 23.8388 34.0445 23.733C33.9388 23.6273 33.8307 23.5255 33.7203 23.4277L33.7202 23.4276L33.4304 21.401C33.415 21.2921 33.374 21.1884 33.3106 21.0985C33.2473 21.0086 33.1635 20.935 33.0662 20.8839C32.5951 20.6375 32.1031 20.4334 31.596 20.2742C31.4908 20.2414 31.3794 20.2341 31.2708 20.2528C31.1623 20.2716 31.0597 20.3159 30.9717 20.3821L29.3336 21.6106C29.1864 21.6018 29.038 21.5973 28.8886 21.5973C28.7391 21.5973 28.5907 21.6017 28.4434 21.6107L28.4433 21.6106Z"
    fill="#FFF281"
    stroke="#161616"
    stroke-width="2"
    stroke-linecap="round"
    stroke-linejoin="round"
  ></path>
  <path
    d="M28.8893 33.0555C31.1905 33.0555 33.056 31.19 33.056 28.8888C33.056 26.5876 31.1905 24.7222 28.8893 24.7222C26.5881 24.7222 24.7227 26.5876 24.7227 28.8888C24.7227 31.19 26.5881 33.0555 28.8893 33.0555Z"
    stroke="#161616"
    stroke-width="2"
    stroke-linecap="round"
    stroke-linejoin="round"
  ></path>
</svg>

<svg width="40" height="40" viewBox="0 0 40 40" fill="none" xmlns="http://www.w3.org/2000/svg"><path d="M28.89 6.667v22.222a2.222 2.222 0 0 1-2.222 2.222H8.891a2.222 2.222 0 0 1-2.223-2.222V6.667c0-1.227.995-2.222 2.223-2.222h17.777c1.228 0 2.223.995 2.223 2.222ZM13.332 26.667h8.889" stroke="#161616" stroke-width="2" stroke-linecap="round" stroke-linejoin="round"/><path d="m28.443 21.61-1.638-1.227a.694.694 0 0 0-.623-.109c-.507.16-1 .363-1.47.609a.695.695 0 0 0-.366.518l-.29 2.027a7.486 7.486 0 0 0-.629.63h0l-2.026.289a.694.694 0 0 0-.518.364c-.246.471-.45.963-.61 1.47a.695.695 0 0 0 .109.625l1.228 1.638a7.374 7.374 0 0 0 0 .89h0l-1.228 1.638a.693.693 0 0 0-.108.623c.159.508.362 1 .608 1.471a.694.694 0 0 0 .518.365l2.027.29a7.486 7.486 0 0 0 .63.63h0l.29 2.026a.694.694 0 0 0 .364.517c.47.246.963.45 1.47.61a.695.695 0 0 0 .624-.108l1.638-1.229a7.458 7.458 0 0 0 .89 0h0l1.639 1.228a.694.694 0 0 0 .623.108c.507-.158 1-.362 1.47-.608a.695.695 0 0 0 .366-.518l.29-2.027a7.429 7.429 0 0 0 .629-.63h0l2.026-.29a.694.694 0 0 0 .518-.363c.246-.471.45-.963.61-1.47a.694.694 0 0 0-.109-.625l-1.228-1.638a7.458 7.458 0 0 0 0-.89h0l1.228-1.638a.694.694 0 0 0 .108-.623c-.159-.508-.362-1-.608-1.471a.693.693 0 0 0-.518-.365l-2.027-.29a7.425 7.425 0 0 0-.63-.63h0l-.29-2.026a.693.693 0 0 0-.364-.517 8.968 8.968 0 0 0-1.47-.61.696.696 0 0 0-.624.108l-1.638 1.229a7.457 7.457 0 0 0-.89 0h0Z" fill="#FFF281" stroke="#161616" stroke-width="2" stroke-linecap="round" stroke-linejoin="round"/><path d="M28.89 33.056a4.167 4.167 0 1 0 0-8.334 4.167 4.167 0 0 0 0 8.334Z" stroke="#161616" stroke-width="2" stroke-linecap="round" stroke-linejoin="round"/></svg>
